X:61
T:B061-  Charon make haste
Q:1/4=120
L:1/4
M:3/4
K:C
gfg|cde|fde|c2G|gfg|ced|e2c|c3:|\
gaa|a2b|g2e|g2e|ga2|b2b|af2|g3|\
cde|fed|cec|B2G|gfg|GGf|e2c|c3|]

